X:1
T:Title
%%score { ( 1 3 ) | 2 }
L:1/8
M:4/4
K:D
V:1 treble nm="Grand Piano"
V:3 treble 
V:2 bass 
V:1
 z4 z2[Q:1/4=96] [DF][EG] | [FA]>[FA] [FA][=F^G] [^FB][FA]FD | C2 A2 A2 AB | c>c cc cABc | %4
[M:3/4] [Fd]6 |[M:1/4] [DF][EG] |[M:4/4] [FA]>[FA] [FA]>[GB] [FA]<[Fd] [DF][EG] | %7
 [FA]>[FA] [FA]>[GB] [FA]<[Fd] [Gc][Ad] | e>d BG [FB][FA]DE |[M:7/8] F2 [CE]2 D3 |[M:1/4] F[EG] | %11
[M:4/4] [FA]2 [FB]2 F>F ED | z/ [CE]3/2- [CE]4 z2 | [EG]2 [CA]2 [Gc]>[Gc] [CGB][EGc] | %14
[M:3/4] [DFB]<[FA]- [DF-A-][DF-A-] [DF-A-]<[DFA] |[M:1/4] F[EG] | %16
[M:4/4] [FA]>[FA] [FA]>[GB] [FA]<[Fd] [DF][EG] | [FA]>[FA] [FA]>[GB] [FA]<[Fd] [Gc][Ad] | %18
 e>d BG [FB][FA]DE |[M:15/8] F2 [CE]-[CE] D2- D z2 z6 |] %20
V:2
 z4 z2 [D,A,][D,A,] | [D,D]>[D,D] [D,D][D,D] [D,D][D,D][D,A,D][D,F,A,] | %2
 [E,G,A,]2 [E,G,C]2 [E,G,C]2[K:treble] [A,C][A,D] | %3
 [A,E]>[A,E] [A,G][A,CG] [A,EG][A,CG][A,DG][A,EG] |[M:3/4][K:bass] [D,D]6 |[M:1/4] [D,A,][D,A,] | %6
[M:4/4] [D,D]>[D,D] [D,D]>[D,D] [D,D]<[D,A,] [D,A,][D,A,] | %7
 [D,D]>[D,D] [D,D]>[D,D] [D,D]<[D,A,] [E,A,][F,A,] | %8
 [G,B,G]>[G,B,G] [G,DG][K:bass][G,B,] [D,D][D,D][F,A,][G,B,D] |[M:7/8] [A,D]2 [A,,G,]2 [D,F,]3 | %10
[M:1/4] [D,A,D][D,A,] |[M:4/4] [D,D]2 [D,D]2 [D,A,D]>[D,A,D] [D,G,C][D,F,] | %12
 [A,,A,]<[A,,A,] A,,A,, A,,<A,, [A,,A,][A,,A,] | [A,,A,]2 [A,,A,]2 [A,,A,]>[A,,A,] A,,A,, | %14
[M:3/4] D,<D, D,D, D,<D, |[M:1/4] [D,A,D][D,A,] | %16
[M:4/4] [D,D]>[D,D] [D,D]>[D,D] [D,D]<[D,A,] [D,A,][D,A,] | %17
 [D,D]>[D,D] [D,D]>[D,D] [D,D]<[D,A,] [E,A,][F,A,] | %18
 [G,B,G]>[G,B,G] [G,DG][K:bass][G,B,] [D,D][D,D][F,A,][G,B,D] | %19
[M:15/8] [A,D]2 [A,,G,]-[A,,G,] [D,F,]2- [D,F,] z2 z6 |] %20
V:3
 x8 | x8 | x8 | x8 |[M:3/4] x6 |[M:1/4] x2 |[M:4/4] x8 | x8 | x8 |[M:7/8] x7 |[M:1/4] x2 | %11
[M:4/4] x8 | .[CF]2 A,A, A,<A, [CE][DF] | x8 |[M:3/4] z/ D3/2 z2 z2 |[M:1/4] x2 |[M:4/4] x8 | x8 | %18
 x8 |[M:15/8] x15 |] %20

